X:312
T: Bohnenlied
N: A0361
O: Europa, Mitteleuropa, Deutschland
N: Pet. Schoeffer II. 1537 No. 7.
R: Romanze, Ballade, Lied
M: 4/2
L: 1/4
K: F
c4d2d2 | G2c2A2B2 | BAGFG2G2 | F8 | z2
c2c2c2 | d3cB2G2 | B2c2d4 | c8 |
c4d2d2 | A2c2A2B2 | BAGFG2G2 | F8 | z2
c2c2c2 | d3cB2G2 | B2c2d4 | c8 | z2
c2d2e2 | f3ed2c2 | d4z2
f2 | c2d2e3d | c2B2A4 | G4z2
c2 | d2B2c4 | z2c2d2B2 | c4z2
F2 | c2A2F2c2 | d4c4

@@@ Tune index: 312
